src/lib/packages/icons/src/assets/filled/mouse.svg

<svg width="24" height="24" viewBox="0 0 24 24" fill="none" xmlns="http://www.w3.org/2000/svg">
<path d="M13.083 3.05206C16.529 3.39606 19 5.46206 19 10.0001V14.0001C19 19.0001 16 21.0001 12 21.0001C8 21.0001 5 19.0001 5 14.0001V10.0001C5 5.46306 7.47099 3.39606 10.917 3.05206C11.094 3.03406 11.25 3.17802 11.25 3.35602V6.55108C11.25 6.64908 11.1979 6.73503 11.1189 6.79303C10.7449 7.06503 10.5 7.50206 10.5 8.00006V9.50006C10.5 10.3281 11.172 11.0001 12 11.0001C12.828 11.0001 13.5 10.3281 13.5 9.50006V8.00006C13.5 7.50206 13.2551 7.06503 12.8811 6.79303C12.8021 6.73503 12.75 6.64908 12.75 6.55108V3.35602C12.75 3.17902 12.906 3.03506 13.083 3.05206Z" fill="currentColor"/>
</svg>

<svg xmlns="http://www.w3.org/2000/svg" width="24" height="24" fill="none"><path fill="currentColor" d="M13.083 3.052C16.529 3.396 19 5.462 19 10v4c0 5-3 7-7 7s-7-2-7-7v-4c0-4.537 2.471-6.604 5.917-6.948a.306.306 0 0 1 .333.304v3.195a.302.302 0 0 1-.131.242A1.488 1.488 0 0 0 10.5 8v1.5a1.5 1.5 0 0 0 3 0V8c0-.498-.245-.935-.619-1.207a.302.302 0 0 1-.131-.242V3.356c0-.177.156-.32.333-.304Z"/></svg>
